imgs/instagram.svg

<svg width="48" height="48" viewBox="0 0 48 48" fill="none" xmlns="http://www.w3.org/2000/svg">
<path d="M24 0C17.482 0 16.665 0.028 14.105 0.144C10.205 0.322 6.779 1.277 4.028 4.028C1.278 6.778 0.322 10.203 0.144 14.105C0.028 16.665 0 17.482 0 24C0 30.518 0.028 31.335 0.144 33.895C0.322 37.795 1.277 41.221 4.028 43.972C6.778 46.722 10.203 47.678 14.105 47.856C16.665 47.972 17.482 48 24 48C30.518 48 31.335 47.972 33.895 47.856C37.794 47.678 41.221 46.723 43.972 43.972C46.722 41.222 47.678 37.797 47.856 33.895C47.972 31.335 48 30.518 48 24C48 17.482 47.972 16.665 47.856 14.105C47.678 10.205 46.723 6.779 43.972 4.028C41.222 1.278 37.797 0.322 33.895 0.144C31.335 0.028 30.518 0 24 0Z" fill="#E02D69"/>
<path d="M24 10.883C28.272 10.883 28.778 10.899 30.465 10.976C32.286 11.059 33.976 11.424 35.276 12.724C36.576 14.024 36.941 15.714 37.024 17.535C37.101 19.222 37.117 19.728 37.117 24C37.117 28.272 37.101 28.778 37.024 30.465C36.941 32.286 36.576 33.976 35.276 35.276C33.976 36.576 32.286 36.941 30.465 37.024C28.778 37.101 28.272 37.117 24 37.117C19.728 37.117 19.222 37.101 17.535 37.024C15.714 36.941 14.024 36.576 12.724 35.276C11.424 33.976 11.059 32.286 10.976 30.465C10.899 28.778 10.883 28.272 10.883 24C10.883 19.728 10.899 19.222 10.976 17.535C11.059 15.714 11.424 14.024 12.724 12.724C14.024 11.424 15.714 11.059 17.535 10.976C19.222 10.899 19.728 10.883 24 10.883ZM24 8C19.655 8 19.11 8.018 17.403 8.096C14.803 8.215 12.519 8.852 10.685 10.685C8.852 12.518 8.215 14.802 8.096 17.403C8.018 19.11 8 19.655 8 24C8 28.345 8.018 28.89 8.096 30.597C8.215 33.197 8.852 35.481 10.685 37.315C12.518 39.148 14.802 39.785 17.403 39.904C19.11 39.982 19.655 40 24 40C28.345 40 28.89 39.982 30.597 39.904C33.197 39.785 35.481 39.148 37.315 37.315C39.148 35.482 39.785 33.198 39.904 30.597C39.982 28.89 40 28.345 40 24C40 19.655 39.982 19.11 39.904 17.403C39.785 14.803 39.148 12.519 37.315 10.685C35.482 8.852 33.198 8.215 30.597 8.096C28.89 8.018 28.345 8 24 8Z" fill="white"/>
<path d="M24.0002 15.7842C19.4622 15.7842 15.7842 19.4632 15.7842 24.0002C15.7842 28.5372 19.4632 32.2162 24.0002 32.2162C28.5372 32.2162 32.2162 28.5372 32.2162 24.0002C32.2162 19.4632 28.5382 15.7842 24.0002 15.7842ZM24.0002 29.3332C21.0542 29.3332 18.6672 26.9452 18.6672 24.0002C18.6672 21.0542 21.0552 18.6672 24.0002 18.6672C26.9462 18.6672 29.3332 21.0552 29.3332 24.0002C29.3332 26.9462 26.9462 29.3332 24.0002 29.3332Z" fill="white"/>
<path d="M32.5421 17.3791C33.6025 17.3791 34.4621 16.5194 34.4621 15.4591C34.4621 14.3987 33.6025 13.5391 32.5421 13.5391C31.4817 13.5391 30.6221 14.3987 30.6221 15.4591C30.6221 16.5194 31.4817 17.3791 32.5421 17.3791Z" fill="white"/>
</svg>

<svg width="48" height="48" fill="none" xmlns="http://www.w3.org/2000/svg"><path d="M24 0c-6.518 0-7.335.028-9.895.144-3.9.178-7.326 1.133-10.077 3.884C1.278 6.778.322 10.203.144 14.105.028 16.665 0 17.482 0 24s.028 7.335.144 9.895c.178 3.9 1.133 7.326 3.884 10.077 2.75 2.75 6.175 3.706 10.077 3.884 2.56.116 3.377.144 9.895.144s7.335-.028 9.895-.144c3.899-.178 7.326-1.133 10.077-3.884 2.75-2.75 3.706-6.175 3.884-10.077.116-2.56.144-3.377.144-9.895s-.028-7.335-.144-9.895c-.178-3.9-1.133-7.326-3.884-10.077-2.75-2.75-6.175-3.706-10.077-3.884C31.335.028 30.518 0 24 0z" fill="#E02D69"/><path d="M24 10.883c4.272 0 4.778.016 6.465.093 1.821.083 3.511.448 4.811 1.748 1.3 1.3 1.665 2.99 1.748 4.811.077 1.687.093 2.193.093 6.465s-.016 4.778-.093 6.465c-.083 1.821-.448 3.511-1.748 4.811-1.3 1.3-2.99 1.665-4.811 1.748-1.687.077-2.193.093-6.465.093s-4.778-.016-6.465-.093c-1.821-.083-3.511-.448-4.811-1.748-1.3-1.3-1.665-2.99-1.748-4.811-.077-1.687-.093-2.193-.093-6.465s.016-4.778.093-6.465c.083-1.821.448-3.511 1.748-4.811 1.3-1.3 2.99-1.665 4.811-1.748 1.687-.077 2.193-.093 6.465-.093zM24 8c-4.345 0-4.89.018-6.597.096-2.6.119-4.884.756-6.718 2.589-1.833 1.833-2.47 4.117-2.589 6.718C8.018 19.11 8 19.655 8 24c0 4.345.018 4.89.096 6.597.119 2.6.756 4.884 2.589 6.718 1.833 1.833 4.117 2.47 6.718 2.589C19.11 39.982 19.655 40 24 40c4.345 0 4.89-.018 6.597-.096 2.6-.119 4.884-.756 6.718-2.589 1.833-1.833 2.47-4.117 2.589-6.718C39.982 28.89 40 28.345 40 24c0-4.345-.018-4.89-.096-6.597-.119-2.6-.756-4.884-2.589-6.718-1.833-1.833-4.117-2.47-6.718-2.589C28.89 8.018 28.345 8 24 8z" fill="#fff"/><path d="M24 15.784a8.216 8.216 0 100 16.432 8.216 8.216 0 000-16.432zm0 13.55a5.333 5.333 0 110-10.666 5.333 5.333 0 010 10.665zm8.542-11.954a1.92 1.92 0 100-3.841 1.92 1.92 0 000 3.84z" fill="#fff"/></svg>
